packages/core/src/svgs/tokens/branded/SFI.svg

<svg width="24" height="24" viewBox="0 0 24 24" fill="none" xmlns="http://www.w3.org/2000/svg">
<path fill-rule="evenodd" clip-rule="evenodd" d="M5.72032 2.00066C4.7337 2.00066 3.78748 2.39259 3.08984 3.09025C2.39218 3.7879 2.00024 4.73411 2.00024 5.72073V18.28C2.00024 19.2667 2.39218 20.2128 3.08984 20.9105C3.78748 21.6081 4.7337 22 5.72032 22H18.2795C19.2662 22 20.2124 21.6081 20.9101 20.9105C21.6078 20.2128 21.9997 19.2667 21.9997 18.28V5.7214C21.9998 5.23277 21.9038 4.74888 21.7169 4.29739C21.53 3.84589 21.2561 3.43563 20.9106 3.09005C20.5651 2.74447 20.155 2.47032 19.7035 2.28329C19.2521 2.09626 18.7682 2 18.2795 2L5.72032 2.00066ZM10.6648 12C10.6648 12 10.6869 11.9625 10.6648 16.3751V20.0323H13.3412V16.3758C13.3404 15.4585 13.3451 14.5906 13.3491 13.8734C13.3545 12.8351 13.3585 12.1104 13.3412 12.0034C13.9753 11.7732 14.6377 11.4667 15.1924 11.2072C15.9907 10.8326 16.7936 10.047 17.1328 9.30697C17.6185 8.24651 17.6533 7.44629 17.2699 6.15162C16.9341 5.01686 16.9247 4.6268 17.2231 4.14706C17.3202 3.98984 17.3937 3.90218 17.3784 3.83595C17.353 3.72621 17.0899 3.67268 16.3059 3.46259C15.6113 3.27659 15.6113 3.27659 15.4875 3.44119C15.0721 3.99183 15.0513 5.01152 15.4319 6.19778C15.8508 7.50317 15.7284 8.47266 15.0493 9.2247C14.7448 9.56129 14.15 9.88835 13.5338 10.0577C12.9229 10.2256 11.1921 10.2276 10.5042 10.061C9.23168 9.75191 8.51171 9.04344 8.35649 7.94542C8.27619 7.37938 8.33977 6.95051 8.63951 6.04256C8.93787 5.13798 8.96394 4.29292 8.71111 3.7309C8.47023 3.19697 8.35113 3.23377 7.63255 3.45591L7.48201 3.50208L6.61087 3.79848L6.82765 4.21263C7.11201 4.75458 7.10197 5.08711 6.77278 6.06597C6.45163 7.02142 6.39341 7.67444 6.56136 8.42849C6.80556 9.52647 7.4131 10.3842 8.39128 11.0132L8.51438 11.0928C9.18079 11.5223 9.6966 11.8542 10.6648 12ZM9.99573 18.0251H6.65033V19.3632H9.99573V18.0251ZM17.3556 18.0251H14.0101V19.3632H17.3556V18.0251ZM9.99573 15.3487H6.65033V16.687H9.99573V15.3487ZM17.3556 15.3487H14.0101V16.687H17.3556V15.3487ZM9.99573 12.6724H6.65033V14.0107H9.99573V12.6724ZM17.3556 12.6724H14.0101V14.0107H17.3556V12.6724ZM10.7015 9.80015C11.1251 9.82357 11.8612 7.51319 11.9997 7.00068C12.0223 7.06291 12.0652 7.21812 12.1221 7.42689C12.3462 8.24449 12.7932 9.8743 13.1003 9.8743C13.1337 9.8743 14.5909 9.11167 14.6418 9.06686C14.6544 9.05609 14.2142 8.20904 13.665 7.18468L12.6252 5.12525H11.3741L10.1216 7.19739L9.12521 9.06873L9.87598 9.43218C10.2888 9.63279 10.6608 9.79812 10.7015 9.80015Z" fill="#C44536"/>
</svg>

<svg xmlns="http://www.w3.org/2000/svg" width="24" height="24" fill="none" viewBox="0 0 24 24">
    <path fill="#C44536" fill-rule="evenodd" d="M5.72 2A3.72 3.72 0 0 0 2 5.72v12.56A3.72 3.72 0 0 0 5.72 22h12.56A3.72 3.72 0 0 0 22 18.28V5.721A3.72 3.72 0 0 0 18.28 2zm4.945 10s.022-.037 0 4.375v3.657h2.676v-3.656c0-.918.004-1.785.008-2.503.005-1.038.01-1.763-.008-1.87.634-.23 1.297-.536 1.851-.796.799-.374 1.602-1.16 1.94-1.9.486-1.06.521-1.86.138-3.155-.336-1.135-.345-1.525-.047-2.005.097-.157.17-.245.155-.311-.025-.11-.288-.163-1.072-.373-.695-.186-.695-.186-.819-.022-.415.55-.436 1.57-.055 2.757.419 1.305.296 2.275-.383 3.027-.304.336-.899.663-1.515.833-.611.168-2.342.17-3.03.003-1.272-.31-1.992-1.018-2.148-2.116-.08-.566-.016-.994.284-1.902.298-.905.324-1.75.071-2.312-.24-.534-.36-.497-1.078-.275l-.151.046-.871.296.217.415c.284.542.274.874-.055 1.853-.321.955-.38 1.608-.212 2.362.245 1.098.852 1.956 1.83 2.585l.123.08c.667.43 1.183.761 2.15.907m-.67 6.025H6.65v1.338h3.346zm7.36 0H14.01v1.338h3.346zm-7.36-2.676H6.65v1.338h3.346zm7.36 0H14.01v1.338h3.346zm-7.36-2.677H6.65v1.339h3.346zm7.36 0H14.01v1.339h3.346zM10.702 9.8c.424.024 1.16-2.287 1.299-2.8.022.063.065.218.122.427.224.817.671 2.447.978 2.447.034 0 1.49-.762 1.542-.807.012-.01-.428-.858-.977-1.882l-1.04-2.06h-1.25l-1.253 2.072-.997 1.872.751.363c.413.2.785.366.825.368" clip-rule="evenodd"/>
</svg>
